icons/onenote.svg

<svg xmlns="http://www.w3.org/2000/svg" viewBox="0 0 16 16"><path fill="#7719aa" d="M14.883 9.387a12 12 0 0 0 .029-3.052 15 15 0 0 0 .024-2.87c-.059-.521-.663-.474-1.038-.542a31 31 0 0 1-.164-.514 39 39 0 0 0-4.471-.1v-1.3H8.31L1 2.306V13.7L8.266 15h1v-1.289h3.495a1.87 1.87 0 0 0 .96-.163 2.5 2.5 0 0 0 .189-.793c.37-.072.957-.036 1.025-.542a11 11 0 0 0-.052-2.826m-8.016 1.226a68 68 0 0 1-1.024-.054C5.21 9.314 4.525 8.1 3.913 6.839c.035 1.2.014 2.411.018 3.616l-.864-.055q.007-2.481 0-4.963l.983-.054c.621 1.165 1.25 2.326 1.856 3.503 0 0 0-2.411.006-3.616q.474-.028.954-.05v5.393ZM13.4 5.771v7.16H9.261v-1.026h3.021v-.648H9.261v-.817h3.021v-.648H9.261v-.817h3.021v-.648H9.261V7.51h3.019v-.648H9.261v-.817h3.021V5.4H9.261v-.82h3.021v-.648H9.261v-.863H13.4v.648c.366 0 .54.008.907.024.021.856.029 1.153-.006 2.009-.368.013-.901.021-.901.021m1.1 6.429-.625.039V9.613l.625.038c.019.849.017 1.703 0 2.549m-.013-3.08-.617.028V6.527q.31.012.622.028c.027.856.032 1.71-.005 2.565" data-iconColor="OneNote"/></svg>

<!--
  - The MIT License (MIT)
  -
  - Copyright (c) 2015-2024 Elior "Mallowigi" Boukhobza
  -
  - Permission is hereby granted, free of charge, to any person obtaining a copy
  - of this software and associated documentation files (the "Software"), to deal
  - in the Software without restriction, including without limitation the rights
  - to use, copy, modify, merge, publish, distribute, sublicense, and/or sell
  - copies of the Software, and to permit persons to whom the Software is
  - furnished to do so, subject to the following conditions:
  -
  - The above copyright notice and this permission notice shall be included in all
  - copies or substantial portions of the Software.
  -
  - THE SOFTWARE IS PROVIDED "AS IS", WITHOUT WARRANTY OF ANY KIND, EXPRESS OR
  - IMPLIED, INCLUDING BUT NOT LIMITED TO THE WARRANTIES OF MERCHANTABILITY,
  - FITNESS FOR A PARTICULAR PURPOSE AND NONINFRINGEMENT. IN NO EVENT SHALL THE
  - AUTHORS OR COPYRIGHT HOLDERS BE LIABLE FOR ANY CLAIM, DAMAGES OR OTHER
  - LIABILITY, WHETHER IN AN ACTION OF CONTRACT, TORT OR OTHERWISE, ARISING FROM,
  - OUT OF OR IN CONNECTION WITH THE SOFTWARE OR THE USE OR OTHER DEALINGS IN THE
  - SOFTWARE.
  -
  -->

<svg  xmlns="http://www.w3.org/2000/svg" width="16px" height="16px" viewBox="0 0 16 16">
  <path fill="#7719aa" data-iconColor="OneNote"
        d="M14.883,9.387a12.029,12.029,0,0,0,.029-3.052,15.189,15.189,0,0,0,.024-2.87c-0.059-.521-0.663-0.474-1.038-0.542-0.056-.171-0.111-0.342-0.164-0.514a39.358,39.358,0,0,0-4.471-.1l0-1.3H8.31L1,2.306,1,13.7,8.266,15h1l0-1.289h3.495a1.866,1.866,0,0,0,.96-0.163,2.47,2.47,0,0,0,.189-0.793c0.37-.072.957-0.036,1.025-0.542A11.062,11.062,0,0,0,14.883,9.387ZM6.867,10.613c-0.343-.015-0.684-0.034-1.024-0.054C5.21,9.314,4.525,8.1,3.913,6.839c0.035,1.2.014,2.411,0.018,3.616L3.067,10.4q0.007-2.481,0-4.963l0.983-.054C4.671,6.548,5.3,7.709,5.906,8.886c0,0,0-2.411.006-3.616,0.316-.018.634-0.036,0.954-0.05v5.393ZM13.4,5.771v7.16H9.261V11.905h3.021V11.257H9.261V10.44h3.021V9.792H9.261V8.975h3.021V8.327H9.261V7.51H12.28l0-.648H9.261V6.045h3.021V5.4H9.261V4.58h3.021V3.932H9.261V3.069H13.4V3.717c0.366,0,.54.008,0.907,0.024,0.021,0.856.029,1.153-.006,2.009C13.933,5.763,13.4,5.771,13.4,5.771ZM14.5,12.2l-0.625.039q0-1.314,0-2.626L14.5,9.651C14.519,10.5,14.517,11.354,14.5,12.2ZM14.487,9.12c-0.207.01-.412,0.02-0.617,0.028q0-1.311,0-2.621c0.207,0.008.413,0.018,0.622,0.028C14.519,7.411,14.524,8.265,14.487,9.12Z"
  />
</svg>
